X: 20023
T: Jimmy Doyle's
R: polka
M: 2/4
K: Dmajor
|:A|d>d ed|cA AA|d>d ef|ga/g/ fe|
d>d ed|cA Aa|f/g/a ge|d3:|
|:e|f>f fd|g>g ge|f>e fa|ge ce|
f>f fd|g>g ge|f/g/a ge|d3:|

